src/lib/packages/icons/src/assets/line/home-trend-down.svg

<svg width="24" height="24" viewBox="0 0 24 24" fill="none" xmlns="http://www.w3.org/2000/svg">
<path d="M20.747 8.48299L14.065 2.98994C12.868 2.00694 11.131 2.00594 9.93401 2.98994L3.25201 8.48299C2.48201 9.11599 2.11502 10.1189 2.29302 11.0999L3.7481 19.083C4.0301 20.628 5.3751 21.75 6.9461 21.75H17.0511C18.6221 21.75 19.9671 20.628 20.2491 19.083L21.704 11.0999C21.884 10.1189 21.517 9.11599 20.747 8.48299ZM20.2291 10.831L18.7741 18.8139C18.6231 19.6459 17.8981 20.25 17.0521 20.25H6.94707C6.10107 20.25 5.37703 19.6459 5.22503 18.8139L3.77007 10.832C3.68807 10.386 3.85511 9.92992 4.20611 9.64192L10.888 4.149C11.21 3.884 11.6051 3.75191 12.0001 3.75191C12.3951 3.75191 12.7901 3.88498 13.1121 4.14998L19.794 9.6429C20.144 9.9299 20.3111 10.385 20.2291 10.831ZM16.7501 12.519V15.019C16.7501 15.117 16.7301 15.214 16.6921 15.306C16.6161 15.489 16.47 15.635 16.287 15.711C16.195 15.749 16.0981 15.769 16.0001 15.769H13.5001C13.0861 15.769 12.7501 15.433 12.7501 15.019C12.7501 14.605 13.0861 14.269 13.5001 14.269H14.189L12.631 12.711L11.5351 13.89C10.9921 14.433 10.042 14.435 9.49602 13.89L7.47002 11.863C7.17702 11.57 7.17702 11.095 7.47002 10.802C7.76302 10.509 8.23806 10.509 8.53106 10.802L10.558 12.8289L11.6541 11.65C12.1991 11.105 13.148 11.106 13.693 11.65L15.251 13.208V12.519C15.251 12.105 15.587 11.769 16.001 11.769C16.415 11.769 16.7501 12.104 16.7501 12.519Z" fill="currentColor"/>
</svg>

<svg xmlns="http://www.w3.org/2000/svg" width="24" height="24" fill="none"><path fill="currentColor" d="M20.747 8.483 14.065 2.99a3.26 3.26 0 0 0-4.131 0L3.252 8.483a2.753 2.753 0 0 0-.959 2.617l1.455 7.983a3.25 3.25 0 0 0 3.198 2.667h10.105a3.25 3.25 0 0 0 3.198-2.667l1.455-7.983a2.748 2.748 0 0 0-.957-2.617Zm-.518 2.348-1.455 7.983a1.75 1.75 0 0 1-1.722 1.436H6.947a1.75 1.75 0 0 1-1.722-1.436L3.77 10.832a1.248 1.248 0 0 1 .436-1.19l6.682-5.493A1.747 1.747 0 0 1 12 3.752c.395 0 .79.133 1.112.398l6.682 5.493c.35.287.517.742.435 1.188Zm-3.479 1.688v2.5a.75.75 0 0 1-.75.75h-2.5a.75.75 0 0 1 0-1.5h.689l-1.558-1.558-1.096 1.179c-.543.543-1.493.545-2.039 0L7.47 11.863a.75.75 0 1 1 1.061-1.061l2.027 2.027 1.096-1.179c.545-.545 1.494-.544 2.039 0l1.558 1.558v-.689a.75.75 0 0 1 1.5 0Z"/></svg>
